O2 T120 E8 E8 F8 G8 G8 F8 E8 D8 C8 C8 D8 E8 E8. D16 D4
E8 E8 F8 G8 G8 F8 E8 D8 C8 C8 D8 E8 D8. C16 C4
D8 D8 E8 C8 D8 E16 F16 E8 C8 D8 E16 F16 E8 D8 C8 D8 O1 G4 O2
E8 E8 F8 G8 G8 F8 E8 D8 C8 C8 D8 E8 D8. C16 C4
