o7T120L16
ee~e~
ce~g~~~<g>~~~

c~~<g~~e~~
a~b~a+a~
g>ega~
fg~e~c~d<b~~>

c~~<g~~e~~
a~b~a+a~
g>ega~
fg~e~c~d<b~~>

gf+fd+~e~<g+a>c~~<a>cd
gf+fd+~e~~>c~cc~~~<
gf+fd+~e~<g+a>c~~<a>
cd~d+d~c~~cc~c~c~

d~ec~<ag~~>cc~c~cde~
cc~c~cd~ec~<ag~>eee~ce~g~~~
<g~~>
ec~<g~g+~~a~>f~f<a~b>
a~a~a~g~f~ec~<ag~~>
ec~<g~g+~~a>f~f<a~~b~>

f~f~f~e~d~c~~~c~~<
g~~e~~a~b~a~~g+~a+~g+~~ede
